X:1
T:Title
%%score { ( 1 3 ) | ( 2 4 ) }
L:1/8
M:3/4
K:Ab
V:1 treble nm="Grand Piano"
V:3 treble 
V:2 bass 
V:4 bass 
V:1
 z2 z2[Q:1/4=90] E2 | z2 [Ec]4 | z2 [FB]4 | [EG]>F [DG]>F [DG]>F | F2 z2 z2 | z2 c4 | %6
 [Fc][Fd] .D2 DB | c>A c>A [DB]>[DG] |[M:2/4] [CA]4 |[M:1/4] [_GA]2 |[M:3/4] [Fd]>[Fd] [Fd]3 [Fd] | %11
 [Fd]>[Ec] [Ec]3 [Ec] | [=DB]>[EB] [FB][GB] [Ac][A=d] |[M:2/4] e-[de-] [Be-][Ge] |[M:1/4] E2 | %15
[M:3/4] [CE][CA] [Ec]2 [_Ge]2 | [Fe][Fd] [FA]3 [=EB] | %17
[M:27/32] z/4 z/4 z/4 z/4 z/4 z/4 z/4 z/4 z/4 z/4 z/4 z/4 z/4 z/4 z/ B/4-B/4-B/4-B/4-B/4-B/4-B/-<B/ z/4 | %18
[M:2/4] [CA]4 |] %19
V:2
 z2 z2 C2 | A,,E, A,E, A,[E,E] | .[D,,D,]>[K:treble]F B,[K:bass]F, B,F, | .E,,>D .B,>D .B,>D | %4
 A,,E, A,E, A,E, | A,,[E,C] [A,CE]E, A,E, | D,F, A,F, A,[=E,=E] | [CE]>C [CE]>C [E,,E,]2 | %8
[M:2/4] [A,,E,]4 |[M:1/4] [A,C]2 |[M:3/4] [D,D]>[D,A,] [D,A,]3 [D,A,] | %11
 [A,,A,]>[A,,A,] [A,,A,]3 [A,,A,] | [B,,F,]>[B,,G,] [B,,A,][B,,B,] [B,,B,][B,,B,] | %13
[M:2/4] [E,B,]4 |[M:1/4] [E,G,]2 |[M:3/4] [A,,A,][A,,E,] [A,,A,]2 [C,A,]2 | %16
 [D,A,][D,A,] [D,D]3 [D,A,] | %17
[M:27/32] [E,A,E]/4-[E,A,E]/4-[E,A,E]/-<[E,A,E]/[E,C]/[E,A,E]/4-[E,A,E]/4-[E,A,E]/-<[E,A,E]/[E,C]/[E,D]/4-[E,D]/4-[E,D]/4-[E,D]/4-[E,D]/-<[E,D]/[E,B,D]3/4 | %18
[M:2/4] [A,,A,]4 |] %19
V:3
 x6 | [CE][CA] .C2 Cc | [Fc]>B .D2 D[FA] | x6 | C2- [CE]2 z [CE] | [CE]A z A [CG][_Gc] | z2 [FA]4 | %7
 x6 |[M:2/4] x4 |[M:1/4] x2 |[M:3/4] x6 | x6 | x6 |[M:2/4] G4 |[M:1/4] z D |[M:3/4] x6 | x6 | %17
[M:27/32] c/4-c/4-c/-<c/A/c/4-c/4-c/-<c/G/ z/4 z/4 z/4 z/4 z/4 z/4 z/ G3/4 |[M:2/4] x4 |] %19
V:4
 x6 | x6 | z F,[K:treble] z2[K:bass] z2 | z E, z E, z E, | x6 | x6 | x6 | [E,A,]2 [E,A,]2 z2 | %8
[M:2/4] x4 |[M:1/4] x2 |[M:3/4] x6 | x6 | x6 |[M:2/4] x4 |[M:1/4] x2 |[M:3/4] x6 | x6 | %17
[M:27/32] z/4 z/4 z/4 z/4 z/4 z/4 z/4 z/4 z/4 z/4 z/4 z/4 z/4 z/4 z/ G,/4-G,/4-G,/4-G,/4-G,/4-G,/4-G,/-<G,/ z/4 | %18
[M:2/4] x4 |] %19

